brandFactory_export/1.Light/Archivos digitales_1Light.svg

<?xml version="1.0" encoding="UTF-8"?>
<svg width="24px" height="24px" viewBox="0 0 24 24" version="1.1" xmlns="http://www.w3.org/2000/svg" xmlns:xlink="http://www.w3.org/1999/xlink">
    <title>1.Light/Archivos digitales_1Light</title>
    <g id="Symbols" stroke="none" stroke-width="1" fill="none" fill-rule="evenodd">
        <g id="1.Light/Archivos-digitales_1Light" fill="#5CB615" fill-rule="nonzero">
            <path d="M10.1277311,20.7613445 L1.08571429,20.7613445 C1.03865546,20.7613445 0.98487395,20.7042017 0.981512605,20.6806723 L0.981512605,8.38823529 C0.991596639,8.35462185 1.05546218,8.30420168 1.08571429,8.30084034 L5.89579832,8.30084034 L5.89579832,9.87394958 C5.89579832,10.6067227 6.15462185,11.2420168 6.64537815,11.7058824 C7.12941176,12.1663866 7.79159664,12.4084034 8.55462185,12.4084034 L10.2319328,12.4084034 L10.2319328,20.6773109 C10.2319328,20.707563 10.1815126,20.7647059 10.1277311,20.7613445 L10.1277311,20.7613445 Z M3.87563025,6.25714286 C3.87563025,5.4907563 4.05714286,4.91596639 4.41680672,4.55630252 C4.78655462,4.18319328 5.39159664,3.99495798 6.21512605,3.99495798 L20.2386555,3.98823529 C21.0588235,3.98823529 21.6605042,4.17647059 22.0336134,4.54957983 C22.3932773,4.9092437 22.5747899,5.48403361 22.5747899,6.25042017 L22.5747899,12.7176471 C22.5747899,13.4907563 22.389916,14.0689076 22.0268908,14.4386555 C21.6537815,14.8184874 21.0521008,15.010084 20.2352941,15.010084 L11.210084,15.0134454 L11.210084,11.7361345 C11.210084,11.6722689 11.1966387,11.605042 11.1697479,11.5478992 C11.1394958,11.4369748 11.0823529,11.3361345 11.0016807,11.2554622 L7.07563025,7.53109244 C6.94453782,7.40672269 6.7697479,7.33613445 6.58823529,7.3394958 L3.87563025,7.3394958 L3.87563025,6.25714286 Z M6.87731092,8.68403361 L9.79159664,11.4470588 L8.55462185,11.4470588 C8.05042017,11.4470588 7.62689076,11.2991597 7.32773109,11.0134454 C7.03529412,10.7344538 6.87731092,10.3411765 6.87731092,9.87394958 L6.87731092,8.68403361 L6.87731092,8.68403361 Z M23.1327731,16.8957983 L11.2134454,16.8957983 L11.2134454,15.9747899 L20.2386555,15.9714286 C21.3310924,15.9714286 22.1714286,15.6789916 22.7394958,15.1042017 C23.2840336,14.5495798 23.5596639,13.7462185 23.5596639,12.7142857 L23.5596639,6.24705882 C23.5596639,5.21848739 23.2840336,4.42184874 22.7361345,3.87394958 C22.1714286,3.3092437 21.3310924,3.02352941 20.2352941,3.02352941 L6.20840336,3.0302521 C5.11260504,3.0302521 4.27563025,3.31932773 3.71092437,3.88067227 C3.16302521,4.42857143 2.88739496,5.22521008 2.88739496,6.25378151 L2.88739496,7.33613445 L1.08571429,7.33613445 C0.517647059,7.3394958 0,7.83697479 0,8.38487395 L0,20.6806723 C0,21.2386555 0.507563025,21.7260504 1.08571429,21.7260504 L10.1277311,21.7260504 C10.7159664,21.7260504 11.2134454,21.2487395 11.2134454,20.6806723 L11.2134454,17.8605042 L23.1327731,17.8605042 C23.4016807,17.8638655 23.6201681,17.6487395 23.6235294,17.3798319 L23.6235294,17.3764706 C23.6235294,17.1142857 23.405042,16.8991597 23.1327731,16.8957983 Z" id="Archivos-digitales_1Light"></path>
        </g>
    </g>
</svg>

<svg width="24" height="24" viewBox="0 0 24 24" xmlns="http://www.w3.org/2000/svg"><path d="M10.128 20.761H1.086c-.047 0-.101-.057-.104-.08V8.388c.01-.033.073-.084.104-.087h4.81v1.573c0 .733.259 1.368.75 1.832.483.46 1.146.702 1.909.702h1.677v8.27c0 .03-.05.087-.104.083zM3.876 6.257c0-.766.181-1.341.54-1.7.37-.374.976-.562 1.8-.562l14.023-.007c.82 0 1.422.188 1.795.562.36.36.54.934.54 1.7v6.468c0 .773-.184 1.35-.547 1.72-.373.38-.975.572-1.792.572l-9.025.003v-3.277a.451.451 0 00-.04-.188.656.656 0 00-.168-.293L7.076 7.531a.691.691 0 00-.488-.192H3.876V6.257zm3.001 2.427l2.915 2.763H8.555c-.505 0-.928-.148-1.227-.434-.293-.279-.45-.672-.45-1.14V8.685zm16.256 8.212h-11.92v-.921l9.026-.004c1.092 0 1.932-.292 2.5-.867.545-.554.82-1.358.82-2.39V6.247c0-1.029-.275-1.825-.823-2.373-.565-.565-1.405-.85-2.5-.85L6.207 3.03c-1.095 0-1.932.29-2.497.85-.548.549-.824 1.345-.824 2.374v1.082H1.086C.518 7.34 0 7.837 0 8.385V20.68c0 .558.508 1.045 1.086 1.045h9.042c.588 0 1.085-.477 1.085-1.045v-2.82h11.92a.485.485 0 00.49-.481v-.004a.49.49 0 00-.49-.48z" fill="#5CB615" fill-rule="nonzero"/></svg>
